32x32/apps/adventure-capitalist.svg

<svg xmlns="http://www.w3.org/2000/svg" width="32" height="32" version="1.1">
 <path style="opacity:0.2;fill-rule:evenodd" d="M 15.478516,1.9571519 A 1.50015,1.50015 0 0 0 14,3.4786363 l 0,10.4999997 3,0 0,-10.4999997 A 1.50015,1.50015 0 0 0 15.478516,1.9571519 Z M 14,19.978636 l 0,10.5 a 1.50015,1.50015 0 1 0 3,0 l 0,-10.5 -3,0 z"/>
 <path style="opacity:0.2" d="M 11.25,4.9879812 C 10.481216,5.0169707 9.4353715,5.1237866 8.3320312,5.4332938 7.228691,5.7428009 5.9675832,6.2672372 4.8691406,7.3571219 3.770698,8.4470066 3,10.178777 3,11.9997 c 0,1.878571 0.6726779,3.612153 1.6835938,4.818359 1.0109158,1.206207 2.244802,1.904338 3.3496093,2.34375 2.2096149,0.878824 4.2519529,0.837891 4.2519529,0.837891 l 3.714844,0 a 3.0003,3.0003 0 0 0 0.0078,0 3.0003,3.0003 0 0 0 0.0293,0 l 3.46875,-0.04297 a 3.0003,3.0003 0 0 0 0.269532,-0.01563 c 0,0 1.12132,-0.05642 2.007812,0.240235 0.443246,0.148329 0.725179,0.338209 0.884766,0.53125 C 22.827556,20.905631 23,21.142568 23,21.9997 c 0,0.183658 0.0723,-0.0096 -0.05078,0.103516 -0.123084,0.113081 -0.545121,0.359329 -1.09375,0.527343 -1.097259,0.336029 -2.38672,0.369141 -2.38672,0.369141 L 9,22.9997 a 3.0003,3.0003 0 1 0 0,6 l 10.46875,0 c 0,0 1.976421,0.03311 4.144531,-0.630859 1.084055,-0.331986 2.295056,-0.835738 3.396485,-1.847657 C 28.111194,25.509266 29,23.816042 29,21.9997 29,19.999689 28.355942,18.178488 27.291016,16.890325 26.22609,15.602162 24.876938,14.887972 23.6875,14.489934 21.308624,13.69386 19.162109,13.972356 19.162109,13.972356 L 19.431641,13.956731 16,13.9997 l -0.03711,0 -3.677735,0 c 0,0 -1.099961,-0.04093 -2.033203,-0.412109 C 9.7853319,13.402003 9.4489055,13.162634 9.28125,12.962591 9.1135945,12.762547 9,12.621129 9,11.9997 c 0,-0.415819 0.015574,-0.303308 0.095703,-0.382812 0.080129,-0.07951 0.3893337,-0.274943 0.8574219,-0.40625 0.9361761,-0.262615 2.1074221,-0.21875 2.1074221,-0.21875 a 3.0003,3.0003 0 0 0 0.224609,0.0078 L 23,10.9997 a 3.0003,3.0003 0 1 0 0,-6 l -10.714844,0 0.226563,0.00781 c 0,0 -0.492935,-0.048521 -1.261719,-0.019531 z"/>
 <path style="fill:none;stroke:#ff990f;stroke-width:6;stroke-linecap:round;stroke-linejoin:round" d="m 16,16 3.469264,-0.04261 c 0,0 6.530736,-0.671676 6.530736,5.042609 C 26,25 19.469264,25 19.469264,25 L 9,25 m 7,-9 -3.714286,0 C 12.285714,16 6,16 6,11 6,6.5265152 12.285714,7 12.285714,7 L 23,7"/>
 <path style="opacity:0.1;fill:#f4f4f7" d="M 12.169922 3.9863281 C 11.95059 3.9778216 11.634392 3.9737863 11.25 3.9882812 C 10.481216 4.0172707 9.4353716 4.1240866 8.3320312 4.4335938 C 7.2286911 4.7431009 5.9675832 5.2675372 4.8691406 6.3574219 C 3.770698 7.4473066 3 9.1790765 3 11 C 3 11.180875 3.0112639 11.359264 3.0234375 11.537109 C 3.140839 9.8892437 3.8644711 8.354264 4.8691406 7.3574219 C 5.9675832 6.2675372 7.2286911 5.7431008 8.3320312 5.4335938 C 9.4353716 5.1240866 10.481216 5.0172707 11.25 4.9882812 C 11.878209 4.9645922 12.245343 4.9889436 12.386719 5 L 23 5 A 3.0003 3.0003 0 0 1 25.998047 7.5058594 A 3.0003 3.0003 0 0 0 23 4 L 12.386719 4 C 12.331849 3.9957088 12.309043 3.9917237 12.169922 3.9863281 z M 9.0761719 11.632812 C 9.0192542 11.670565 9 11.63552 9 12 C 9 12.621429 9.1135945 12.762847 9.28125 12.962891 C 9.4489055 13.162934 9.785333 13.402303 10.251953 13.587891 C 11.185195 13.95907 12.285156 14 12.285156 14 L 15.962891 14 L 16 14 L 19.333984 13.958984 C 19.748924 13.918109 21.582534 13.785823 23.6875 14.490234 C 24.876938 14.888272 26.22609 15.602462 27.291016 16.890625 C 28.247001 18.04701 28.860366 19.633336 28.976562 21.392578 C 28.985728 21.261832 29 21.132268 29 21 C 29 18.999989 28.355942 17.178788 27.291016 15.890625 C 26.22609 14.602462 24.876938 13.888272 23.6875 13.490234 C 21.582534 12.785823 19.748924 12.918109 19.333984 12.958984 L 16 13 L 15.962891 13 L 12.285156 13 C 12.285156 13 11.185195 12.95907 10.251953 12.587891 C 9.785333 12.402303 9.4489055 12.162934 9.28125 11.962891 C 9.1964333 11.861689 9.1256084 11.773747 9.0761719 11.632812 z M 22.900391 21.134766 C 22.750209 21.255708 22.369248 21.473518 21.855469 21.630859 C 20.75821 21.966888 19.46875 22 19.46875 22 L 9 22 A 3.0003 3.0003 0 0 0 6.0019531 25.492188 A 3.0003 3.0003 0 0 1 9 23 L 19.46875 23 C 19.46875 23 20.75821 22.966888 21.855469 22.630859 C 22.404098 22.462845 22.826135 22.216597 22.949219 22.103516 C 23.072299 21.9904 23 22.183658 23 22 C 23 21.587831 22.959538 21.324194 22.900391 21.134766 z"/>
 <path style="fill:#ffd56a;fill-rule:evenodd" d="M 15.478516 0.97851562 A 1.50015 1.50015 0 0 0 14 2.5 L 14 13 L 17 13 L 17 2.5 A 1.50015 1.50015 0 0 0 15.478516 0.97851562 z M 14 19 L 14 29.5 A 1.50015 1.50015 0 1 0 17 29.5 L 17 19 L 14 19 z"/>
 <rect style="opacity:0.2" width="3" height="1" x="14" y="19"/>
 <path style="opacity:0.2;fill:#f4f4f7;fill-rule:evenodd" d="M 15.478516,0.97851562 C 14.650088,0.99037879 13.988132,1.6715719 14,2.5 l 0,0.9785156 C 13.988132,2.6500875 14.650088,1.9688944 15.478516,1.9570312 16.323773,1.9449226 17.012109,2.6332583 17,3.4785156 L 17,2.5 C 17.012109,1.6547427 16.323773,0.96640705 15.478516,0.97851562 Z"/>
</svg>

<svg xmlns="http://www.w3.org/2000/svg" width="32" height="32"><path style="opacity:.2;fill-rule:evenodd" d="M15.479 1.957A1.5 1.5 0 0 0 14 3.48v10.5h3v-10.5a1.5 1.5 0 0 0-1.521-1.522zM14 19.98v10.5a1.5 1.5 0 1 0 3 0v-10.5h-3z"/><path style="opacity:.2" d="M11.25 4.988c-.769.029-1.815.136-2.918.445-1.103.31-2.364.834-3.463 1.924C3.771 8.447 3 10.18 3 12c0 1.878.673 3.612 1.684 4.818 1.01 1.206 2.244 1.904 3.35 2.344 2.209.879 4.251.838 4.251.838H16a3 3 0 0 0 .008 0 3 3 0 0 0 .03 0l3.468-.043a3 3 0 0 0 .27-.016s1.12-.056 2.007.24c.443.149.725.339.885.532.16.193.332.43.332 1.287 0 .183.072-.01-.05.103-.124.113-.546.36-1.095.528-1.097.336-2.386.369-2.386.369H9a3 3 0 1 0 0 6h10.469s1.976.033 4.144-.631c1.084-.332 2.295-.836 3.397-1.848C28.11 25.51 29 23.816 29 22c0-2-.644-3.822-1.709-5.11-1.065-1.288-2.414-2.002-3.604-2.4-2.378-.796-4.525-.518-4.525-.518l.27-.015L16 14h-3.715s-1.1-.041-2.033-.412c-.467-.186-.803-.425-.97-.625C9.113 12.763 9 12.62 9 12c0-.416.016-.304.096-.383.08-.08.389-.275.857-.406.936-.263 2.108-.22 2.108-.22a3 3 0 0 0 .224.009H23a3 3 0 1 0 0-6H12.285l.227.008s-.493-.049-1.262-.02z"/><path style="fill:none;stroke:#ff990f;stroke-width:6;stroke-linecap:round;stroke-linejoin:round" d="m16 16 3.47-.043S26 15.286 26 21c0 4-6.53 4-6.53 4H9m7-9h-3.714S6 16 6 11c0-4.473 6.286-4 6.286-4H23"/><path style="opacity:.1;fill:#f4f4f7" d="M12.17 3.986c-.22-.008-.536-.012-.92.002-.769.03-1.815.136-2.918.446-1.103.31-2.364.834-3.463 1.923C3.771 7.447 3 9.18 3 11c0 .18.011.36.023.537.118-1.648.841-3.183 1.846-4.18 1.099-1.09 2.36-1.614 3.463-1.923 1.103-.31 2.15-.417 2.918-.446.628-.023.995 0 1.137.012H23a3 3 0 0 1 2.998 2.506A3 3 0 0 0 23 4H12.387c-.055-.004-.078-.008-.217-.014zm-3.094 7.647C9.02 11.67 9 11.636 9 12c0 .621.114.763.281.963.168.2.504.44.971.625.933.371 2.033.412 2.033.412H16l3.334-.041c.415-.04 2.249-.173 4.354.531 1.189.398 2.538 1.112 3.603 2.4.956 1.157 1.57 2.743 1.686 4.503.009-.131.023-.26.023-.393 0-2-.644-3.821-1.709-5.11-1.065-1.288-2.414-2.002-3.604-2.4-2.104-.704-3.938-.572-4.353-.531L16 13h-3.715s-1.1-.04-2.033-.412c-.467-.186-.803-.425-.97-.625a.995.995 0 0 1-.206-.33zM22.9 21.135c-.15.12-.53.339-1.045.496-1.097.336-2.386.369-2.386.369H9a3 3 0 0 0-2.998 3.492A3 3 0 0 1 9 23h10.469s1.29-.033 2.386-.37c.55-.167.971-.413 1.094-.526.123-.114.051.08.051-.104 0-.412-.04-.676-.1-.865z"/><path style="fill:#ffd56a;fill-rule:evenodd" d="M15.479.979A1.5 1.5 0 0 0 14 2.5V13h3V2.5A1.5 1.5 0 0 0 15.479.979zM14 19v10.5a1.5 1.5 0 1 0 3 0V19h-3z"/><path style="opacity:.2" d="M14 19h3v1h-3z"/><path style="opacity:.2;fill:#f4f4f7;fill-rule:evenodd" d="M15.479.979A1.5 1.5 0 0 0 14 2.5v.979a1.5 1.5 0 1 1 3 0V2.5A1.5 1.5 0 0 0 15.479.979z"/></svg>
